resources/images/milk.svg

<svg xmlns="http://www.w3.org/2000/svg" xmlns:xlink="http://www.w3.org/1999/xlink" preserveAspectRatio="none" width="285" height="427" viewBox="0 0 285 427"><defs><linearGradient id="a" gradientUnits="userSpaceOnUse" x1="221.65" y1="285.5" x2="195.45" y2="285.5" spreadMethod="pad"><stop offset="0%" stop-color="#585858" stop-opacity="0"/><stop offset="14.902%" stop-opacity=".341"/><stop offset="100%" stop-color="#FFF" stop-opacity="0"/></linearGradient><linearGradient id="b" gradientUnits="userSpaceOnUse" x1="62.7" y1="285.5" x2="88.9" y2="285.5" spreadMethod="pad"><stop offset="0%" stop-color="#585858" stop-opacity="0"/><stop offset="14.902%" stop-opacity=".341"/><stop offset="100%" stop-color="#FFF" stop-opacity="0"/></linearGradient><linearGradient id="c" gradientUnits="userSpaceOnUse" x1="105.2" y1="39" x2="181.4" y2="39" spreadMethod="pad"><stop offset="0%" stop-color="#898989"/><stop offset="41.569%" stop-color="#BFBFBF"/><stop offset="100%" stop-color="#595959"/></linearGradient><g id="d"><path fill="#FFF" d="M209.4 123.7q-66.8-9.25-133.75 0 66.95 13.8 133.75 0m18.95 51.05q-4.15-25.1-18.95-51.05-66.8 13.8-133.75 0-14.75 25.95-18.95 51.05V385.9q13.65 11.6 45.4 15.95 15.8 2.05 32 2.25 4.15-.2 8.5-.2 4.15 0 8.35.2 16.15-.2 32-2.25 31.8-4.35 45.4-15.95V174.75M89 199.35V381.6l-26.2-5.65V189.8l26.2 9.55m132.65 176.6l-26.25 5.65V199.35l26.25-9.55v186.15z"/><path fill="#999" d="M142.15 23.4q-20.75.15-36.9 3.85 9.4 6.15 36.3 6.3 27.4.2 39.9-6.3-17.4-4-39.3-3.85z"/><path fill="silver" d="M110.3 47.95l-5.05-3.1.35 8.05 4.7 2.3v-7.25m71.15-3.1l-5.05 3.1v7.25l4.85-1.45.2-8.9z"/><path fill="url(#a)" d="M195.4 381.6l26.25-5.65V189.8l-26.25 9.55V381.6z"/><path fill="url(#b)" d="M89 381.6V199.35l-26.2-9.55v186.15L89 381.6z"/><path fill="#999" fill-opacity=".62" d="M176.4 55.2v-7.25q-8.55 3.15-32.1 3.15-23.65 0-34-3.15v7.25q33 6.4 66.1 0m0 6.7v-6.7q-33.1 6.4-66.1 0v6.7q-4.7 10.5-8.5 18.5-7.35 15.2-12.1 21.45-8 10.9-14.05 21.85 66.95-9.25 133.75 0-6.1-10.95-14.15-21.85-1.75-2.3-9.3-18.95l-9.55-21z"/><path fill="url(#c)" d="M181.45 44.85v-17.6q-12.5 6.5-39.9 6.3-26.9-.15-36.3-6.3v17.6l5.05 3.1q10.35 3.15 34 3.15 23.55 0 32.1-3.15l5.05-3.1z"/></g><path id="e" stroke="#151515" stroke-width="3" stroke-linejoin="round" stroke-linecap="round" fill="none" d="M181.45 44.85l-.2 8.9-4.85 1.45v6.7l9.55 21q7.55 16.65 9.3 18.95 8.05 10.9 14.15 21.85 14.8 25.95 18.95 51.05V385.9q-13.6 11.6-45.4 15.95-15.85 2.05-32 2.25-4.2-.2-8.35-.2-4.35 0-8.5.2-16.2-.2-32-2.25-31.75-4.35-45.4-15.95V174.75q4.2-25.1 18.95-51.05 6.05-10.95 14.05-21.85 4.75-6.25 12.1-21.45 3.8-8 8.5-18.5v-6.7l-4.7-2.3-.35-8.05m5.05 10.35q33 6.4 66.1 0"/><path id="f" stroke="#333" stroke-width="3" stroke-linejoin="round" stroke-linecap="round" fill="none" d="M181.45 44.85v-17.6q-12.5 6.5-39.9 6.3-26.9-.15-36.3-6.3v17.6l5.05 3.1q10.35 3.15 34 3.15 23.55 0 32.1-3.15l5.05-3.1zm0-17.6q-17.4-4-39.3-3.85-20.75.15-36.9 3.85"/><path id="g" stroke="#362318" stroke-width="1" stroke-linejoin="round" stroke-linecap="round" fill="none" d="M209.4 123.7q-66.8-9.25-133.75 0 66.95 13.8 133.75 0z"/></defs><g><use xlink:href="#d"/><use xlink:href="#e"/><use xlink:href="#f"/><use xlink:href="#g"/></g></svg>

<svg xmlns="http://www.w3.org/2000/svg" version="1.1" xmlns:xlink="http://www.w3.org/1999/xlink" preserveAspectRatio="none" x="0px" y="0px" width="285px" height="427px" viewBox="0 0 285 427">
<defs>
<linearGradient id="Gradient_1" gradientUnits="userSpaceOnUse" x1="221.65" y1="285.5" x2="195.45000000000002" y2="285.5" spreadMethod="pad">
<stop  offset="0%" stop-color="#585858" stop-opacity="0"/>

<stop  offset="14.901960784313726%" stop-color="#000000" stop-opacity="0.3411764705882353"/>

<stop  offset="100%" stop-color="#FFFFFF" stop-opacity="0"/>
</linearGradient>

<linearGradient id="Gradient_2" gradientUnits="userSpaceOnUse" x1="62.699999999999996" y1="285.5" x2="88.9" y2="285.5" spreadMethod="pad">
<stop  offset="0%" stop-color="#585858" stop-opacity="0"/>

<stop  offset="14.901960784313726%" stop-color="#000000" stop-opacity="0.3411764705882353"/>

<stop  offset="100%" stop-color="#FFFFFF" stop-opacity="0"/>
</linearGradient>

<linearGradient id="Gradient_3" gradientUnits="userSpaceOnUse" x1="105.20000000000002" y1="39" x2="181.4" y2="39" spreadMethod="pad">
<stop  offset="0%" stop-color="#898989"/>

<stop  offset="41.568627450980394%" stop-color="#BFBFBF"/>

<stop  offset="100%" stop-color="#595959"/>
</linearGradient>

<g id="Layer0_0_FILL">
<path fill="#FFFFFF" stroke="none" d="
M 209.4 123.7
Q 142.6 114.45 75.65 123.7 142.6 137.5 209.4 123.7
M 228.35 174.75
Q 224.2 149.65 209.4 123.7 142.6 137.5 75.65 123.7 60.9 149.65 56.7 174.75
L 56.7 385.9
Q 70.35 397.5 102.1 401.85 117.9 403.9 134.1 404.1 138.25 403.9 142.6 403.9 146.75 403.9 150.95 404.1 167.1 403.9 182.95 401.85 214.75 397.5 228.35 385.9
L 228.35 174.75
M 89 199.35
L 89 381.6 62.8 375.95 62.8 189.8 89 199.35
M 221.65 375.95
L 195.4 381.6 195.4 199.35 221.65 189.8 221.65 375.95 Z"/>

<path fill="#999999" stroke="none" d="
M 142.15 23.4
Q 121.4 23.55 105.25 27.25 114.65 33.4 141.55 33.55 168.95 33.75 181.45 27.25 164.05 23.25 142.15 23.4 Z"/>

<path fill="#C0C0C0" stroke="none" d="
M 110.3 47.95
L 105.25 44.85 105.6 52.9 110.3 55.2 110.3 47.95
M 181.45 44.85
L 176.4 47.95 176.4 55.2 181.25 53.75 181.45 44.85 Z"/>

<path fill="url(#Gradient_1)" stroke="none" d="
M 195.4 381.6
L 221.65 375.95 221.65 189.8 195.4 199.35 195.4 381.6 Z"/>

<path fill="url(#Gradient_2)" stroke="none" d="
M 89 381.6
L 89 199.35 62.8 189.8 62.8 375.95 89 381.6 Z"/>

<path fill="#999999" fill-opacity="0.6196078431372549" stroke="none" d="
M 176.4 55.2
L 176.4 47.95
Q 167.85 51.1 144.3 51.1 120.65 51.1 110.3 47.95
L 110.3 55.2
Q 143.3 61.6 176.4 55.2
M 176.4 61.9
L 176.4 55.2
Q 143.3 61.6 110.3 55.2
L 110.3 61.9
Q 105.6 72.4 101.8 80.4 94.45 95.6 89.7 101.85 81.7 112.75 75.65 123.7 142.6 114.45 209.4 123.7 203.3 112.75 195.25 101.85 193.5 99.55 185.95 82.9 177.9 65.2 176.4 61.9 Z"/>

<path fill="url(#Gradient_3)" stroke="none" d="
M 181.45 44.85
L 181.45 27.25
Q 168.95 33.75 141.55 33.55 114.65 33.4 105.25 27.25
L 105.25 44.85 110.3 47.95
Q 120.65 51.1 144.3 51.1 167.85 51.1 176.4 47.95
L 181.45 44.85 Z"/>
</g>

<path id="Layer0_0_1_STROKES" stroke="#151515" stroke-width="3" stroke-linejoin="round" stroke-linecap="round" fill="none" d="
M 181.45 44.85
L 181.25 53.75 176.4 55.2 176.4 61.9
Q 177.9 65.2 185.95 82.9 193.5 99.55 195.25 101.85 203.3 112.75 209.4 123.7 224.2 149.65 228.35 174.75
L 228.35 385.9
Q 214.75 397.5 182.95 401.85 167.1 403.9 150.95 404.1 146.75 403.9 142.6 403.9 138.25 403.9 134.1 404.1 117.9 403.9 102.1 401.85 70.35 397.5 56.7 385.9
L 56.7 174.75
Q 60.9 149.65 75.65 123.7 81.7 112.75 89.7 101.85 94.45 95.6 101.8 80.4 105.6 72.4 110.3 61.9
L 110.3 55.2 105.6 52.9 105.25 44.85
M 110.3 55.2
Q 143.3 61.6 176.4 55.2"/>

<path id="Layer0_0_2_STROKES" stroke="#333333" stroke-width="3" stroke-linejoin="round" stroke-linecap="round" fill="none" d="
M 181.45 44.85
L 181.45 27.25
Q 168.95 33.75 141.55 33.55 114.65 33.4 105.25 27.25
L 105.25 44.85 110.3 47.95
Q 120.65 51.1 144.3 51.1 167.85 51.1 176.4 47.95
L 181.45 44.85 Z
M 181.45 27.25
Q 164.05 23.25 142.15 23.4 121.4 23.55 105.25 27.25"/>

<path id="Layer0_0_3_STROKES" stroke="#362318" stroke-width="1" stroke-linejoin="round" stroke-linecap="round" fill="none" d="
M 209.4 123.7
Q 142.6 114.45 75.65 123.7 142.6 137.5 209.4 123.7 Z"/>
</defs>

<g transform="matrix( 1, 0, 0, 1, 0,0) ">
<use xlink:href="#Layer0_0_FILL"/>

<use xlink:href="#Layer0_0_1_STROKES"/>

<use xlink:href="#Layer0_0_2_STROKES"/>

<use xlink:href="#Layer0_0_3_STROKES"/>
</g>
</svg>
